src/assets/filled/TrendDown.svg

<?xml version="1.0" encoding="UTF-8"?>
<svg width="24" height="24" viewBox="0 0 24 24" xmlns="http://www.w3.org/2000/svg">
 <path d="m16.19 2h-8.38c-3.64 0-5.81 2.17-5.81 5.81v8.37c0 3.65 2.17 5.82 5.81 5.82h8.37c3.64 0 5.81-2.17 5.81-5.81v-8.38c0.01-3.64-2.16-5.81-5.8-5.81zm0.69 12.33c0 0.09-0.02 0.18-0.05 0.27-0.07 0.17-0.21 0.31-0.38 0.38-0.09 0.04-0.18 0.05-0.27 0.05h-1.86c-0.39 0-0.7-0.31-0.7-0.7s0.31-0.7 0.7-0.7h0.18l-2.11-2.11-1.02 1.52c-0.12 0.17-0.3 0.29-0.51 0.31s-0.41-0.05-0.56-0.2l-2.98-2.98c-0.27-0.27-0.27-0.71 0-0.99s0.71-0.27 0.99 0l2.38 2.38 1.02-1.52c0.12-0.17 0.3-0.29 0.51-0.31 0.22-0.02 0.41 0.05 0.56 0.2l2.72 2.72v-0.18c0-0.39 0.31-0.7 0.7-0.7s0.7 0.31 0.7 0.7v1.86h-0.02z"/>
</svg>

<svg width="24" height="24" viewBox="0 0 24 24"  xmlns="http://www.w3.org/2000/svg">
<path d="M16.19 2H7.81C4.17 2 2 4.17 2 7.81V16.18C2 19.83 4.17 22 7.81 22H16.18C19.82 22 21.99 19.83 21.99 16.19V7.81C22 4.17 19.83 2 16.19 2ZM16.88 14.33C16.88 14.42 16.86 14.51 16.83 14.6C16.76 14.77 16.62 14.91 16.45 14.98C16.36 15.02 16.27 15.03 16.18 15.03H14.32C13.93 15.03 13.62 14.72 13.62 14.33C13.62 13.94 13.93 13.63 14.32 13.63H14.5L12.39 11.52L11.37 13.04C11.25 13.21 11.07 13.33 10.86 13.35C10.65 13.37 10.45 13.3 10.3 13.15L7.32 10.17C7.05 9.9 7.05 9.46 7.32 9.18C7.59 8.9 8.03 8.91 8.31 9.18L10.69 11.56L11.71 10.04C11.83 9.87 12.01 9.75 12.22 9.73C12.44 9.71 12.63 9.78 12.78 9.93L15.5 12.65V12.47C15.5 12.08 15.81 11.77 16.2 11.77C16.59 11.77 16.9 12.08 16.9 12.47V14.33H16.88Z" />
</svg>
